src/vs/editor/contrib/suggest/media/Document_16x.svg

<svg viewBox="0 0 16 16" xmlns="http://www.w3.org/2000/svg"><path d="m16 16h-16v-16h16z" fill="#f6f6f6" opacity="0"/><path d="m15 16h-13v-16h8.621l4.379 4.379z" fill="#f6f6f6"/><path d="m13 14h-9v-12h5v4h4zm-3-9v-2.793l2.793 2.793z" fill="#f0eff1"/><path d="m3 1v14h11v-10.207l-3.793-3.793zm10 13h-9v-12h5v4h4zm-3-9v-2.793l2.793 2.793z" fill="#424242"/></svg>

<svg xmlns="http://www.w3.org/2000/svg" viewBox="0 0 16 16"><style>.icon-canvas-transparent{opacity:0;fill:#f6f6f6}.icon-vs-out{fill:#f6f6f6}.icon-vs-bg{fill:#424242}.icon-vs-fg{fill:#f0eff1}</style><path class="icon-canvas-transparent" d="M16 16H0V0h16v16z" id="canvas"/><path class="icon-vs-out" d="M15 16H2V0h8.621L15 4.379V16z" id="outline"/><path class="icon-vs-fg" d="M13 14H4V2h5v4h4v8zm-3-9V2.207L12.793 5H10z" id="iconFg"/><path class="icon-vs-bg" d="M3 1v14h11V4.793L10.207 1H3zm10 13H4V2h5v4h4v8zm-3-9V2.207L12.793 5H10z" id="iconBg"/></svg>
